X:2
T:Andy's Special
C:Andy De Jarlis
M:2/4
L:1/8
Z:abc by Bruce Osborne - bosborne@kos.net
K:D
F/G/|A/F/D/F/ A/F/D/F/|G[G/B/][G/ B/] [GB]c/d/|e/c/A/c/ e/c/A/c/|d/e/f/g/ aF/G/|!
A/F/D/F/ A/F/D/F/|G[G/B/][G/ B/] [G2 B2]|c/d/c/B/ A/c/e/c/|d[d/f/][d/ f/] [d f]:|!
|:A/d/|ff/e/ de/f/|g/a/g/f/ gg|e/f/e/c/ A/c/d/e/|ff/e/ ff|!
A/B/A/F/ D/F/A/F/|G[G/B/][G/ B/] [G2 B2]|c/d/c/B/ A/c/e/c/|d[d/f/][d/ f/] [d f]:|!
